X:1
T:The Well-Tempered Clavier Part II Praeludium I
T:BWV 870
T:J. S. Bach
%%score { ( 1 4 5 ) | ( 2 3 6 ) }
L:1/8
Q:1/4=72
M:4/4
K:C
V:1 treble nm="Harp"
V:4 treble 
V:5 treble 
V:2 bass 
V:3 bass 
V:6 bass 
V:1
"^Adagio" z/ c/d/e/ G/e/F/d/ E/4c/4B/4A/4G/_B/ E/G/C/B/ | %1
 A/4G/4F/4E/4F/A/ D/F/A,/C/ B,/D/E/F/ G,/F/E/D/ | E8- | E2- E/DC/ B,/D/G- G/G/F/E/ | %4
 F2- F/F/E/D/ E4 | D2- D/D/E/G/ C2- C/A/4G/4A/C/ | B,2- B,/D/E/F/ G2- G>G | F4 E2- E/E/F/G/ | %8
 A/4G/4F/4E/4F/A/ z/ c/B/A/ ^G2- G/E/A- | AAGF E>E- E/E/D/^C/ | D/A/B/^c/ d/ f2 f/_e/d/ e/g/^c/d/ | %11
 ^c2- cd- d/d/c/=B/ c/d/e- | e/A/d/^c/ d>e f2- f/e/f | e2- e/e/a/^g/ a2- a/=g/a/f/ | %14
 d2- d/f/e/g/ c2- c>_e | d2- d/fe/ f>c f/a/d/f/ | B/d/g- g/g/f/e/ f2- f/d/f- | %17
 f/f/e- e/_e/d/^c/ d2- d>d | ^c=c- c>c =B_B- B>^A | A4 G2- G/G/A/c/ | %20
 F2- F/d/4c/4d/F/ E2- E/G/A/B/ | c2- c>c B3 ^c/4d/4e/ | A2- A/A/_B/c/ d/4c/4B/4A/4B/d/ G/f/e/d/ | %23
 ^c2- c/A/ d2 d=c_B | A>A- A/A/G/^F/ G/d/e/^f/ g<_b- | b/_b/_a/g/ a/c'/^f/g/ f2- fg- | %26
 g/g/^f/e/ f/g/a- a/d/g/f/ g>a | _b2- b/a/b a2- a>_a | g2- g>g ^f2- f/=e/=f- | %29
 fe/d/ e2- e/e/d/c/ d/f/a/c/ | B2 c2- c2- c>B | c4 z/ c/d/e/ f/a/d/f/ | _B2- B/BG/- G/E/F/G/ A>=B | %33
 !fermata!c8 |] %34
V:2
 C,8- | C,8- | C,2[I:staff -1] G,6 |[I:staff +1] z/ C,/D,/E,/ F,E, D,2 E,2 | D,4 C,/ z/ z z2 | %5
 z4 z2 z D,- | D,3 z2 E,3- | E,/A,,/B,,/^C,/ D,/ z/ z z4 | z8 | z4 z z/ G,G,/F,/E,/ | F,4 G,4- | %11
 G,>G, ^F,=F, E,D,E,A,- | A,_B,A,G, F,/G,/A,- A,/^G,/A, | z/ E,/^F,/^G,/ A,2- A,/A,/B,/^C/ D2- | %14
 D/D/E/^F/ G>=F E2- E/C/F- | F2 _B,C- C>A, D2- | D2 G,A,- A,/E,/F,/A,/ D>C | %17
 B, z z2 z/ D,/E,/^F,/ G,/A,/_B,- | B,/A,/E,/G,/ ^F,/G,/A,- A,/G,/D,/=F,/ E,/F,/G,- | %19
 G,/C,/D,/E,/ F,/ z/ z z4 | z2 z G,- G,3 z | z A,3- A,/D,/E,/^F,/ G,/ z/ z | z8 | z8 | %24
 z z/ CC/_B,/A,/ B,4 | C4- C>C B,^A, | A,G,A, D2 _EDC | _B,/C/D- D/^C/D z/ A,/=B,/C/ D/ z/ z | %28
 z/ G,/A,/B,/ C/ z/ z z A,- A,/G,/D,/F,/ | E,/F,/G,- G,/ z/ z z2 z/ A,/D- | %30
 D2[I:staff -1] E2- E/[I:staff +1]E,/D,/C,/ G,2- | G,4- G,F,/E,/ D,/E,/F,- | %32
 F,E,/D,/ E,2 F,E, [D,F,]2 | !fermata!E,8 |] %34
V:3
 C,,8- | C,,8- | C,,2 z/ F,/E,/D,/ C,/4D,/4C,/4B,,/4C,/E,/ G,,/_B,,/A,,/G,,/ | F,,6 E,,A,, | %4
 D,,2 G,,2 C,,/G,,/A,,/B,,/ C,/E,/A,,/C,/ | ^F,,D,, G,,2- G,,/A,,/4B,,/4C,/4D,/4E,/ F,,2 | %6
 G,,3 F,, E,,G,,A,,^C, | D,,2- D,,/F,/B,,/D,/ ^G,,E,,A,,=G,, | F,,E,,F,,D,, E,,4- | %9
 E,,/B,,/C,/D,/ E,/G,/B,,/D,/ ^C,/E,/A,, D,2- | D,A,,_B,,D, G,,4 | A,,6 A,,2 | D,4- D,>C, B,,>A,, | %13
 ^G,, z z/ C,/=F,/E,/ F,2- F,/E,/F,/D,/ | _B,4 B,/A,/G,/B,/ A,2- | A,/G,/F,/A,/ G,[C,G,] F,4- | %16
 F,/F,/E,/D,/ E,A,, D,4- | D,/D,/C,/B,,/ C,F, _B,,2- B,,>_E, | A,,2- A,,>^F, G,,2- G,,>E, | %19
 F,,2 F,,/A,/D,/F,/ B,,G,, C,2- | C,/D,/4E,/4F,/4G,/4A,/ B,,2 C,3 B,, | %21
 A,,C,D,^F, G,,2- G,,/A,/E,/G,/ | ^C,A,,D,=C, _B,,A,,B,,G,, | A,,4- A,,/E,/F,/G,/ A,/C/E,/G,/ | %24
 ^F,/A,/D, G,2- G,D,_E,G, | C,4 D,4- | D,2 D,2 G,4- | G,>F, E,>D, ^C, z z/ A,/D,/F,/ | %28
 G,, z z/ G,/C,/E,/ A,,2 B,,2 | C,2- C,/E,/A,,/C,/ F,,/C,/D,/E,/ F,2- | %30
 F,/A,/G,/F,/ E,/G,/C,/E,/ G,,4 | C,8- | C,8- | C,8 |] %34
V:4
 x8 | x8 | z/ C3/2- C6 | A,4 G,>B, C2- | C/C/D/A,/ B,2 C4- | C/C/B,/A,/ B,2 A,4- | %6
 A,/A,/G,/^F,/ G, z z/ E/B,/D/ ^C/E/A,- | A,3 D- D/D/C/B,/ C2- | C2 D2- D/F/E/D/ C>C | %9
 B,3 D- D/D/^C A,2- | A,/ z/ z z A/=c/ _B4- | B/_B/A- A/A^G/ A2- A>=G | F2- F/F/_B A>A d>d- | %13
 d/d/c/B/ c2- c/^c/d/e/ A2- | A/^F/G/A/ _B z z B- B/A/4G/4A/c/ | _B3 B- B/G/A- AF | %16
 G>B ^c2 d-d/4=c/4_B/4A/4 B>A | ^G>G A2- A/=c/_B/A/ B/^F/=G- | %18
 G>_B A/G/^F/_E/ D/=E/=F/A/ G/F/E/_D/ | C3 F- F/F/E/D/ E2 | D4- D/D/C/B,/ C z | %21
 z/ A/E/G/ ^F/A/D- D3 G- | G/G/F/E/ F4 G2- | G/_B/A/G/ F>F E3 G- | G/G/^F D2- D/ z/ z z d/=f/ | %25
 _e4- e/e/d- d/d^c/ | d2- d>c _Bc- c/B/_e | d>d g>g- g/g/f/e/ f2- | f/f/e/d/ e2- e/_e/d/c/ d2- | %29
 dc/B/ c2 A2- A>A | G2 G2- G/G/F/E/ D/E/F- | F/F/E/D/ E/G/C/E/[I:staff +1] A,4 | %32
[I:staff -1] z/ A/G/F/ GE C2 z/ F/D | [CEG]8 |] %34
V:5
 x8 | x8 | x/ C/B,/A,/ x6 | x8 | x8 | x8 | x8 | x8 | x8 | x8 | x8 | x8 | x8 | x8 | x8 | x8 | x8 | %17
 x8 | x8 | x8 | x8 | x8 | x8 | x8 | x8 | x8 | x8 | x8 | z4 z2 z G- | G2- G z z4 | x8 | x8 | x8 | %33
 x8 |] %34
V:6
 x8 | x8 | x8 | x8 | x8 | x8 | x8 | x8 | x8 | x8 | x8 | x8 | x8 | x8 | x8 | x8 | x8 | x8 | x8 | %19
 x8 | x8 | x8 | x8 | x8 | x8 | x8 | x8 | x8 | x8 | x8 | x8 | x8 | G,2 G,/F,/G, A,G, z _A, | G,8 |] %34

